!!!OTL: 165. Freylekhs
!!!Genre:	Freylekhs
!!!Mode:	Major
!!!Listening/dance:	dance
!!!:	*D:
!!!One_Mode:	no
**kern
*I"P1
*clefG2
*k[f#]
*G:
*M2/4
*>A
!LO:TX:a:i:t=G-major
=1
16gLL
(16f#
16g)
(16bJJ
16aLL)
(16g
16f#)
(16aJJ
=2
16gLL)
(16f#
16g)
(16bJJ
16aLL)
(16g
16f#)
(16aJJ
=3
8g)
4gg
8gg
=4
(16ddLL
16cc)
16b'
16a'JJ
(8btL
8gJ)
=5
16gLL
(16f#
16g)
(16bJJ
16aLL)
(16g
16f#)
(16aJJ
=6
16gLL)
(16f#
16g)
(16bJJ
16aLL)
(16g
16f#)
16aJJ
=7
8g
4gg
8gg
=8
(16ddLL
16cc)
16b'
16a'JJ
8g
8r
=9:|!|:
*>B
*k[f#c#]
*>bM
*D:
!LO:TX:a:i:t=D-major
8a
4a
16bLL
16cc#JJ
=10
16ddLL
(16cc#
16dd)
(16eeJJ
8ff#L)
8ddJ
=11
8eeL
[8ee^J
16eeLL]
(16gg
16ff#)
16eeJJ
=12
16ddLL
16cc#
16dd
16eeJJ
8ff#tL
8ddJ
=13
8a
4a
16bLL
16cc#JJ
=14
16ddLL
(16cc#
16dd)
(16eeJJ
8ff#L)
8ddJ
=15
8eeL
[8eeJ
16eeLL]
16gg
16ff#
16eeJJ
=16
8dd
8r
8r
*>C
8dd
=17:|!|:
*k[f#]
*>eM
*G:
!LO:TX:a:i:t=G-major
4gg
(8qff#/
8ggL)
16ddL
16ccJJ
=18
16bLL
16ccJ
[8ddJ
16ddLL]
16cc
16b
16aJJ
=19
8g
4gg
8gg
=20
16ddLL
16cc
16b
16aJJ
8btL
8gJ
=21
4gg
(8qff#/
8ggL)
16ddL
16ccJJ
=22
16bLL
16ccJ
[8ddJ
16ddLL]
16cc
16b
16aJJ
=23
8g
4gg
8gg
=24
(16ddLL
16cc)
16b'
16a'JJ
8g
8r
==:|!
*-
